X:1
T:Get Up and Bar the Door
M:2/4
L:1/8
K:F
A/2-G/2| FD D3/2 C/2| DF FG| Ac cA| c3| c| dd cc| AA GF/2-G/2| AD DC|\
 D3||
